X:2
T:Fais-nous marcher  ta lumire - E252
M:4/4
L:1/8
K:C
C2 EF GG AB|c4 B4|A2 Bc G3 G|F2 E2 D4|C2 EF GG AB|c4 B4|
A2 Bc G3 F|E2 D2 C4||zC CC DC B,C|E4 zE EE|FE DE D4|C4 zC CC|
DC B,C A4|zA BA GD EF|F4 E4|zE EE FE AB|c4 zA Bc|B3B A2 A2|G8||
